X: 130
T: No_64_Song_Concerning_the_White_Bees.krn
N: Derived from No_64_Song_Concerning_the_White_Bees.krn
%%abc-version 2.0
%%abcx-abcm2ps-target-version 5.9.1 (29 Sep 2008)
%%abc-creator hum2abc beta
%%abcx-conversion-date 2019/03/15 08:37:56
%%humdrum-veritas 1244585316
%%humdrum-veritas-data 3163607233
%%linebreak <none>
%%barnumbers 0
L: 1/8
M: 3/4
K: F clef=bass
D,2 [I:setbarnb 1]| 
A,2A,3/A,/ A,3/F,/ ]|:  
[M:2/4]A,2(B,3/A,/) | 
A,3/A,/ A,3/F,/ | 
E,3/D,/ (3(E,/D,)D, | 
D,3/D,/ A,,3/D,/ | 
D,3/E,/ D,3/D,/ | 
D,/D,3/ A,, z | 
D,3/A,,/D,2 | 
(E,/D,/)D,/D,/ (3(E,/D,)D, | 
D,2A,,3/D,/ | 
D,3/A,,/ D,3/D,/ | 
D,3/D,/ A,,3/A,,/ | 
D,3/A,,/ D,3/D,/ | 
D,3/D,/ D,3/D,/ | 
D,4 :|]  



